X:20
%%etbk:tnset id:7,pos:2,rep:3x,ant:
%%etbk:wsite http://www.thesession.org/tunes/display/691
%%etbk:pldat 2016-07-25T18:16,2014-12-06T16:13,2014-03-25T17:21,2014-02-15T15:36,2014-02-14T16:42,2013-11-19T17:01,2013-10-04T15:07,2013-05-22T16:19,2013-05-06T18:49,2013-05-05T15:21,2013-05-01T15:32,2013-04-30T17:26
T: Matt People's
Z: Piano Box Version by Martin Fleischmann
H: Created 2013-02-19 /  Last Modified 2013-02-19
M: 4/4
L: 1/8
R: Reel
K: Ador
|:!1!A2 !5!eA !2!BA!5!eA|!2!BB !5!g!2!B !2!B!1!A!1!G!2!B|!1!A2 eA BAeA|!3!BAGA !3!B!1!A!2!A!1!A:|
|!5!a!2!e !1!e!2!e agef|!4!g!1!B !2!B!1!B !4!g2 fg|ae e2 !5!a!4!g!2!e!1!d|!2!BB !1!G!2!A !3!B!1!AA2|
ae ee agef|gB BB g2 fg|!5!af!4!ge !3!f!1!d!2!e!1!d|!2!BB GA BAA2|


